X:1
T: Clach-Na-Cuddin
C:
R:Strathspey
Q: 128
K:D
M:4/4
L:1/16
|:A,2|DD3 F3E D4 A,D3|DD3 F3G A3D F3d|D3D F3E D4 D3F|G3A, F3A, E3A, CE3|
DD3 F3E D4 A,D3|DD3 F3G A3D F3d|D3D F3E D4 D3F|G3A, F3A, E3A, CE3|
d3f A3f defg a3f|d3f A3g f3d A3a|d3f A3f defg a3f|g3A f3A e3A c3e|
d3f A3f defg a3f|d3f A3g f3d A3a|Bg3 Af3 Ge3 Ad3|G3A, F3A, E3A, C2:|
